X: 11969
T: End Of Winter, The
R: jig
M: 6/8
K: Dmajor
A3 ABc|dAG FED|~E3 FDA,|G,3 D2C|B,2C DCB,|
A,DC D2E|1 F2G AFD|~E3 EFG:|2 FAF FEC|D3 DCD||
|:~E3 ECA,|G2F ECA,|DEF AFA|dcd Ade|
fed afd|B/c/dB AFG|EFG BGE|1 EDC DCD:|2 EDD dcB||

